X: 36248
T: Seagull, The
R: jig
M: 6/8
K: Amajor
|:aga fae|fec Bce|aga fae|fec Ace|
aga fae|fec Bce|afe fae|fec Ace:|
|:fcc cBB|fec Bce|fcc cBB|fec Ace|
fcc cBB|fec Bce|afe fae|fec Ace:|
|:cfe Bce|fec Bce|cfe Bce|fec Ace|
cfe Bce|fec Bce|afe fae|fec Ace:|
|:aec Bce|fec Bce|aec Bce|fec Ace|
aec Bce|fec Bce|afe fae|fec Ace:|

